wasmegg/rockets-tracker/src/badges/badge-18.svg

<svg xmlns="http://www.w3.org/2000/svg" xml:space="preserve" style="fill-rule:evenodd;clip-rule:evenodd;stroke-linejoin:round;stroke-miterlimit:2" viewBox="0 0 64 64"><path d="M.252-.032C.248-.046.235-.051.222-.049H.221l-.004.001-.012.001-.021.001-.023.001Q.164-.13.16-.216L.159-.314l.005-.098Q.17-.491.171-.57c0-.053-.003-.107.003-.16C.176-.744.162-.755.15-.755a.02.02 0 0 0-.022.014l-.002.003-.044.087-.024.042-.013.021-.008.01-.001.002-.004.004q-.013.018 0 .035c.009.009.027.011.035 0a.5.5 0 0 0 .055-.084v.089C.12-.466.113-.401.111-.336c-.003.097.006.194.001.291L.05-.046a.025.025 0 0 0-.025.024c0 .014.011.025.025.025l.082.001h.006a1 1 0 0 0 .097-.006c.013-.002.02-.018.017-.03" style="fill:#fff;fill-rule:nonzero" transform="matrix(56 0 0 56 15.496 52.964)"/><path d="M.283-.65a.2.2 0 0 0-.019-.059.1.1 0 0 0-.048-.046.15.15 0 0 0-.069-.004.2.2 0 0 0-.071.026C.05-.718.037-.687.031-.659a.26.26 0 0 0 .011.138l.022.041.061.102c-.01.009-.03.036-.04.044a.3.3 0 0 0-.041.092.4.4 0 0 0-.009.141.1.1 0 0 0 .028.06.16.16 0 0 0 .125.053.1.1 0 0 0 .063-.036.16.16 0 0 0 .032-.139c-.009-.046-.03-.088-.05-.13l-.015-.03-.026-.043-.004-.006a.3.3 0 0 0 .049-.07.5.5 0 0 0 .047-.149.2.2 0 0 0-.001-.059m-.047.024.001.012v.008l-.005.028-.003.018-.003.009v.002l-.001.004-.029.075-.008.018-.003.003L.18-.44l-.019.026-.021-.03-.005-.01-.001-.002L.131-.46.119-.481.097-.522l-.01-.019-.003-.01Q.081-.553.082-.556L.08-.56a.2.2 0 0 1-.005-.042L.074-.607v-.001l.001-.01.002-.022.002-.011.001-.004.001-.002.006-.017.001-.002.002-.003.006-.008.002-.002V-.69l.007-.004.001-.001Q.11-.696.112-.699q.009-.002.017-.006h.004L.14-.707l.017-.004.016-.001h.01l.009.001.005.001.005.003.002.001.005.004.006.006.003.005.003.003.004.012.005.012v.002q.003.003.002.007.004.014.004.029m-.013.431.005.016.002.007.001.001.001.003q.004.017.005.033l.001.008v.006l-.001.013-.003.014-.001.004-.003.008-.003.008-.004.004q-.002.007-.008.013L.209-.05l-.002.001-.005.005H.201L.2-.043l-.01.004-.005.001-.007.001H.169q-.008 0-.014-.003l-.002.001V-.04L.145-.042.131-.048.126-.051.123-.053.109-.064.105-.067.103-.07.094-.082.091-.086.089-.089.087-.095.085-.101Q.082-.115.083-.128L.082-.143v-.012a.4.4 0 0 1 .008-.07l.003-.012s.002-.005.001-.006l.003-.01.014-.032.003-.005.003-.005.01-.013.005-.006.005-.006.011-.009.006-.007.02.033.007.016.014.029q.016.031.028.063" style="fill:#fff;fill-rule:nonzero" transform="matrix(56 0 0 56 31.064 52.964)"/></svg>

<?xml version="1.0" encoding="UTF-8" standalone="no"?>
<!DOCTYPE svg PUBLIC "-//W3C//DTD SVG 1.1//EN" "http://www.w3.org/Graphics/SVG/1.1/DTD/svg11.dtd">
<svg width="100%" height="100%" viewBox="0 0 64 64" version="1.1" xmlns="http://www.w3.org/2000/svg" xmlns:xlink="http://www.w3.org/1999/xlink" xml:space="preserve" xmlns:serif="http://www.serif.com/" style="fill-rule:evenodd;clip-rule:evenodd;stroke-linejoin:round;stroke-miterlimit:2;">
    <g transform="matrix(1,0,0,1,-15.3103,21.9514)">
        <g transform="matrix(56,0,0,56,30.8061,31.0123)">
            <path d="M0.252,-0.032C0.248,-0.046 0.235,-0.051 0.222,-0.049L0.221,-0.049C0.221,-0.049 0.218,-0.048 0.217,-0.048C0.213,-0.048 0.209,-0.048 0.205,-0.047C0.198,-0.046 0.191,-0.046 0.184,-0.046C0.176,-0.045 0.168,-0.045 0.161,-0.045C0.164,-0.102 0.162,-0.159 0.16,-0.216C0.16,-0.249 0.159,-0.281 0.159,-0.314C0.16,-0.347 0.162,-0.38 0.164,-0.412C0.167,-0.465 0.171,-0.517 0.171,-0.57C0.171,-0.623 0.168,-0.677 0.174,-0.73C0.176,-0.744 0.162,-0.755 0.15,-0.755C0.139,-0.755 0.132,-0.749 0.128,-0.741C0.127,-0.74 0.127,-0.739 0.126,-0.738C0.111,-0.709 0.097,-0.68 0.082,-0.651C0.075,-0.637 0.067,-0.623 0.058,-0.609C0.054,-0.602 0.05,-0.595 0.045,-0.588C0.042,-0.585 0.04,-0.581 0.037,-0.578C0.037,-0.578 0.036,-0.577 0.036,-0.576C0.035,-0.574 0.034,-0.573 0.032,-0.572C0.024,-0.561 0.022,-0.547 0.032,-0.537C0.041,-0.528 0.059,-0.526 0.067,-0.537C0.088,-0.563 0.106,-0.591 0.122,-0.621C0.122,-0.591 0.123,-0.562 0.122,-0.532C0.12,-0.466 0.113,-0.401 0.111,-0.336C0.108,-0.239 0.117,-0.142 0.112,-0.045C0.091,-0.046 0.07,-0.046 0.05,-0.046C0.036,-0.046 0.025,-0.035 0.025,-0.022C0.025,-0.008 0.036,0.003 0.05,0.003C0.077,0.003 0.105,0.004 0.132,0.004L0.138,0.004C0.17,0.004 0.203,0.003 0.235,-0.002C0.248,-0.004 0.255,-0.02 0.252,-0.032Z" style="fill:white;fill-rule:nonzero;"/>
        </g>
        <g transform="matrix(56,0,0,56,46.3741,31.0123)">
            <path d="M0.283,-0.65C0.28,-0.671 0.274,-0.691 0.264,-0.709C0.253,-0.73 0.237,-0.747 0.216,-0.755C0.194,-0.763 0.17,-0.762 0.147,-0.759C0.121,-0.754 0.097,-0.747 0.076,-0.733C0.05,-0.718 0.037,-0.687 0.031,-0.659C0.025,-0.629 0.024,-0.597 0.029,-0.567C0.032,-0.551 0.036,-0.535 0.042,-0.521C0.048,-0.507 0.056,-0.493 0.064,-0.48C0.08,-0.451 0.097,-0.422 0.114,-0.394C0.117,-0.389 0.121,-0.383 0.125,-0.378C0.115,-0.369 0.095,-0.342 0.085,-0.334C0.065,-0.307 0.052,-0.275 0.044,-0.242C0.032,-0.196 0.031,-0.148 0.035,-0.101C0.037,-0.079 0.048,-0.059 0.063,-0.041C0.078,-0.023 0.098,-0.01 0.12,-0C0.141,0.01 0.165,0.014 0.188,0.012C0.214,0.008 0.234,-0.005 0.251,-0.024C0.284,-0.062 0.292,-0.113 0.283,-0.163C0.274,-0.209 0.253,-0.251 0.233,-0.293C0.228,-0.303 0.223,-0.314 0.218,-0.323C0.21,-0.338 0.201,-0.352 0.192,-0.366C0.191,-0.368 0.19,-0.37 0.188,-0.372C0.208,-0.393 0.224,-0.417 0.237,-0.442C0.249,-0.466 0.259,-0.491 0.267,-0.517C0.275,-0.541 0.281,-0.567 0.284,-0.591C0.287,-0.611 0.286,-0.631 0.283,-0.65ZM0.236,-0.626C0.237,-0.622 0.237,-0.618 0.237,-0.614L0.237,-0.612C0.236,-0.61 0.236,-0.608 0.237,-0.606C0.236,-0.596 0.234,-0.587 0.232,-0.578C0.231,-0.571 0.23,-0.566 0.229,-0.56C0.228,-0.557 0.228,-0.554 0.226,-0.551L0.226,-0.549C0.225,-0.548 0.225,-0.546 0.225,-0.545C0.217,-0.519 0.208,-0.494 0.196,-0.47C0.193,-0.464 0.191,-0.458 0.188,-0.452L0.185,-0.449C0.183,-0.446 0.182,-0.444 0.18,-0.44C0.174,-0.432 0.167,-0.423 0.161,-0.414C0.153,-0.424 0.147,-0.434 0.14,-0.444C0.139,-0.447 0.136,-0.451 0.135,-0.454C0.135,-0.455 0.134,-0.455 0.134,-0.456C0.133,-0.457 0.132,-0.458 0.131,-0.46L0.119,-0.481C0.111,-0.495 0.103,-0.509 0.097,-0.522C0.093,-0.529 0.09,-0.534 0.087,-0.541C0.086,-0.545 0.084,-0.548 0.084,-0.551C0.082,-0.552 0.082,-0.554 0.082,-0.556C0.082,-0.556 0.081,-0.559 0.08,-0.56C0.077,-0.574 0.075,-0.588 0.075,-0.602C0.075,-0.603 0.074,-0.605 0.074,-0.607L0.074,-0.608C0.075,-0.611 0.074,-0.614 0.075,-0.618C0.075,-0.625 0.076,-0.632 0.077,-0.64C0.077,-0.644 0.079,-0.647 0.079,-0.651C0.079,-0.652 0.08,-0.654 0.08,-0.655C0.081,-0.656 0.081,-0.656 0.081,-0.657C0.083,-0.663 0.085,-0.669 0.087,-0.674C0.088,-0.675 0.088,-0.675 0.088,-0.676C0.089,-0.676 0.09,-0.679 0.09,-0.679C0.092,-0.682 0.094,-0.684 0.096,-0.687L0.098,-0.689L0.098,-0.69C0.1,-0.691 0.102,-0.692 0.105,-0.694C0.105,-0.695 0.106,-0.695 0.106,-0.695C0.108,-0.696 0.111,-0.697 0.112,-0.699C0.118,-0.7 0.123,-0.703 0.129,-0.705L0.133,-0.705C0.133,-0.705 0.138,-0.707 0.14,-0.707C0.145,-0.709 0.151,-0.71 0.157,-0.711C0.162,-0.711 0.167,-0.712 0.173,-0.712L0.183,-0.712C0.186,-0.712 0.189,-0.712 0.192,-0.711C0.194,-0.711 0.196,-0.71 0.197,-0.71C0.199,-0.709 0.201,-0.708 0.202,-0.707C0.203,-0.707 0.203,-0.707 0.204,-0.706C0.205,-0.705 0.208,-0.703 0.209,-0.702L0.215,-0.696C0.216,-0.694 0.217,-0.692 0.218,-0.691L0.221,-0.688C0.222,-0.684 0.224,-0.68 0.225,-0.676C0.227,-0.673 0.228,-0.669 0.23,-0.664L0.23,-0.662C0.232,-0.66 0.232,-0.657 0.232,-0.655C0.235,-0.645 0.236,-0.636 0.236,-0.626ZM0.223,-0.195C0.225,-0.19 0.226,-0.184 0.228,-0.179C0.229,-0.177 0.23,-0.175 0.23,-0.172L0.231,-0.171C0.231,-0.17 0.231,-0.169 0.232,-0.168C0.234,-0.157 0.237,-0.146 0.237,-0.135C0.237,-0.132 0.238,-0.129 0.238,-0.127L0.238,-0.121C0.237,-0.117 0.238,-0.113 0.237,-0.108C0.236,-0.103 0.236,-0.099 0.234,-0.094C0.234,-0.092 0.234,-0.091 0.233,-0.09C0.232,-0.087 0.232,-0.085 0.23,-0.082C0.229,-0.08 0.228,-0.077 0.227,-0.074L0.223,-0.07C0.221,-0.066 0.219,-0.061 0.215,-0.057C0.213,-0.054 0.212,-0.052 0.209,-0.05C0.209,-0.05 0.208,-0.049 0.207,-0.049C0.205,-0.047 0.204,-0.045 0.202,-0.044L0.201,-0.044L0.2,-0.043C0.197,-0.041 0.194,-0.04 0.19,-0.039C0.189,-0.039 0.187,-0.038 0.185,-0.038C0.183,-0.037 0.18,-0.037 0.178,-0.037L0.169,-0.037C0.164,-0.038 0.159,-0.038 0.155,-0.04C0.154,-0.039 0.154,-0.039 0.153,-0.039L0.153,-0.04C0.15,-0.041 0.148,-0.042 0.145,-0.042C0.14,-0.044 0.136,-0.046 0.131,-0.048C0.13,-0.049 0.128,-0.05 0.126,-0.051C0.125,-0.052 0.124,-0.053 0.123,-0.053C0.118,-0.057 0.114,-0.06 0.109,-0.064C0.108,-0.065 0.107,-0.066 0.105,-0.067C0.105,-0.068 0.104,-0.069 0.103,-0.07C0.1,-0.074 0.096,-0.078 0.094,-0.082C0.093,-0.083 0.091,-0.085 0.091,-0.086C0.09,-0.087 0.09,-0.088 0.089,-0.089C0.088,-0.091 0.087,-0.093 0.087,-0.095C0.086,-0.097 0.085,-0.1 0.085,-0.101C0.083,-0.11 0.083,-0.119 0.083,-0.128C0.082,-0.133 0.082,-0.138 0.082,-0.143C0.081,-0.144 0.082,-0.145 0.082,-0.146L0.082,-0.155C0.083,-0.178 0.085,-0.202 0.09,-0.225C0.09,-0.229 0.092,-0.233 0.093,-0.237C0.093,-0.237 0.095,-0.242 0.094,-0.243C0.096,-0.247 0.097,-0.25 0.097,-0.253C0.102,-0.263 0.106,-0.274 0.111,-0.285C0.112,-0.286 0.114,-0.288 0.114,-0.29C0.115,-0.292 0.116,-0.293 0.117,-0.295C0.12,-0.299 0.124,-0.304 0.127,-0.308C0.129,-0.31 0.131,-0.313 0.132,-0.314C0.133,-0.315 0.136,-0.318 0.137,-0.32C0.14,-0.323 0.144,-0.326 0.148,-0.329C0.15,-0.331 0.152,-0.333 0.154,-0.336C0.158,-0.329 0.161,-0.324 0.165,-0.318C0.166,-0.316 0.167,-0.315 0.168,-0.314C0.168,-0.314 0.168,-0.313 0.169,-0.313C0.17,-0.31 0.172,-0.306 0.174,-0.303C0.177,-0.298 0.179,-0.292 0.181,-0.287C0.186,-0.277 0.191,-0.267 0.195,-0.258C0.205,-0.237 0.215,-0.216 0.223,-0.195Z" style="fill:white;fill-rule:nonzero;"/>
        </g>
    </g>
</svg>
